X:1
T:Title
%%score { ( 1 3 4 ) | ( 2 5 ) }
L:1/8
M:4/4
K:Ab
V:1 treble nm="Grand Piano"
V:3 treble 
V:4 treble 
V:2 bass 
V:5 bass 
V:1
 z4 z2[Q:1/4=110] [CE]2 | [CE]2 [Ec]2 [Ec]2 [DB]2 | [DB]2 [CA]4 [EA]2 | [FA]2 [=EG]2 [FA]3 [DF] | %4
[M:3/4] [CE]6 |[M:1/4] [CE]2 |[M:4/4] E2 [Gd]2 [Gd]2 c2 | c2 B4 A2 | [=DA]2 [DG]2 [DA]2 [Dc]2 | %9
[M:3/4] [EB]6 |[M:1/4] [DE]2 |[M:4/4] [CE]2 [Ec]2 [Ec]2 [DB]2 | [DB]2 [CA]4 [EA]2 | %13
 [FA]2 [=EG]2 [Fd]3 [DF] |[M:3/4] [CE]6 |[M:1/4] [CE]2 |[M:4/4] [DF]2 [DG]2 [EA]2 B2 | %17
 c2 [Ee]4 [Fd]2 | c2 E2 c3 B | [CA]6 z2 | [Ec]6 z2 | [CA]6[K:bass][K:treble] z2 | %22
 [A,DF]2 [DFA]2 [DFA]3 [A,DF] |[M:3/4] E4 z2 |[M:1/4] [A,CE]2 |[M:4/4] [A,CE]2 [A,EA]2 [A,EA]2 B2 | %26
 c2 e4 c2 | c2 B2 B2 A2 | B6 z2 | [Ec]6 z2 | [CA]6[K:bass][K:treble] z2 | %31
 [A,DF]2 [DFd]2 [DFd]3 [A,DF] |[M:3/4] E4 z2 |[M:1/4] [A,CE]2 |[M:4/4] [A,DF]2 [B,DG]2 [A,EA]2 B2 | %35
 c2 [Ee]4 [Fd]2 | c2 E2 c3 B |[M:3/4] [CA]6 |] %38
V:2
 z4 z2 [A,,A,]2 | [A,,A,]2 [A,,A,]2 [E,A,]2 [E,G,]2 | [A,,A,]2 [A,,A,]4 [C,A,]2 | %3
 [D,D]2 [D,D]2 [D,D]3 [D,A,] |[M:3/4] [A,,A,]6 |[M:1/4] [A,,A,]2 | %6
[M:4/4] [E,G,]2 [E,B,]2 [E,B,]2 [E,A,E]2 | [E,A,E]2 [E,G,D]4 [F,A,C]2 | %8
 [B,,F,]2 [B,,B,]2 [B,,F,]2 [B,,A,]2 |[M:3/4] [E,G,]6 |[M:1/4] [E,G,]2 | %11
[M:4/4] [A,,A,]2 [A,,A,]2 [E,A,]2 [E,G,]2 | [A,,A,]2 [A,,A,]4 [C,A,]2 | %13
 [D,D]2 [D,D]2 [D,A,]3 [D,A,] |[M:3/4] [A,,A,]6 |[M:1/4] [A,,A,]2 | %16
[M:4/4] [D,A,]2 [B,,B,]2 [C,A,]2 [E,G,E]2 | [A,E]2 [C,A,]4 [D,A,]2 | %18
 [E,A,E]2 [E,A,C]2 [E,A,E]3 [E,G,D] | [A,,A,]6 z2 | [A,,A,]2 C,2 z2 D2 | A,,2 A,,2 A,,2 C,2 | %22
 D,2 D,2 D,3 D, |[M:3/4] z2 B,2 C2 |[M:1/4] A,,2 |[M:4/4] A,,2 C,2 C,2 [E,G,E]2 | %26
 [A,E]2 [A,CA]4 [A,E]2 | [A,E]2 [G,B,E]2[K:bass] [G,B,E]2 [F,B,=D]2 | [E,G,E]6 z2 | %29
 [A,,A,]2 C,2 z2 D2 | A,,2 A,,2 A,,2 C,2 | D,2 D,2 D,3 D, |[M:3/4] z2 B,2 C2 |[M:1/4] A,,2 | %34
[M:4/4] D,2 B,,2 C,2 [E,G,E]2 | [A,E]2 [C,A,]4 [D,A,]2 | [E,A,E]2 [E,A,C]2 [E,A,E]3 [E,G,D] | %37
[M:3/4] [A,,A,]6 |] %38
V:3
 x8 | x8 | x8 | x8 |[M:3/4] x6 |[M:1/4] x2 |[M:4/4] x8 | x8 | x8 |[M:3/4] x6 |[M:1/4] x2 | %11
[M:4/4] x8 | x8 | x8 |[M:3/4] x6 |[M:1/4] x2 |[M:4/4] x8 | x8 | x8 | x8 | z2 A,2 z2 B2 | %21
 A,2[K:bass] E,2 E,2[K:treble] [A,EG]2 | x8 |[M:3/4] [A,C]2 D2 E2 |[M:1/4] x2 |[M:4/4] x8 | x8 | %27
 x8 | x8 | z2 A,2 z2 B2 | A,2[K:bass] E,2 E,2[K:treble] [A,EG]2 | x8 |[M:3/4] [A,C]2 D2 E2 | %33
[M:1/4] x2 |[M:4/4] x8 | x8 | x8 |[M:3/4] x6 |] %38
V:4
 x8 | x8 | x8 | x8 |[M:3/4] x6 |[M:1/4] x2 |[M:4/4] x8 | x8 | x8 |[M:3/4] x6 |[M:1/4] x2 | %11
[M:4/4] x8 | x8 | x8 |[M:3/4] x6 |[M:1/4] x2 |[M:4/4] x8 | x8 | x8 | x8 | z4 G,4 | %21
 x2[K:bass] x4[K:treble] x2 | x8 |[M:3/4] x6 |[M:1/4] x2 |[M:4/4] x8 | x8 | x8 | x8 | z4 G,4 | %30
 x2[K:bass] x4[K:treble] x2 | x8 |[M:3/4] x6 |[M:1/4] x2 |[M:4/4] x8 | x8 | x8 |[M:3/4] x6 |] %38
V:5
 x8 | x8 | x8 | x8 |[M:3/4] x6 |[M:1/4] x2 |[M:4/4] x8 | x8 | x8 |[M:3/4] x6 |[M:1/4] x2 | %11
[M:4/4] x8 | x8 | x8 |[M:3/4] x6 |[M:1/4] x2 |[M:4/4] x8 | x8 | x8 | x8 | z4 E,4 | x8 | x8 | %23
[M:3/4] A,,6 |[M:1/4] x2 |[M:4/4] x8 | x8 | x4[K:bass] x4 | x8 | z4 E,4 | x8 | x8 |[M:3/4] A,,6 | %33
[M:1/4] x2 |[M:4/4] x8 | x8 | x8 |[M:3/4] x6 |] %38

